svgs/duotone/circle-u.svg

<svg xmlns="http://www.w3.org/2000/svg" viewBox="0 0 512 512"><!-- Font Awesome Pro 6.0.0-alpha2 by @fontawesome - https://fontawesome.com License - https://fontawesome.com/license (Commercial License) --><defs><style>.fa-secondary{opacity:.4}</style></defs><path d="M256 16C123.451 16 16 123.451 16 256S123.451 496 256 496S496 388.549 496 256S388.549 16 256 16ZM368 290.906C368 351.062 317.75 400 256 400S144 351.062 144 290.906V168C144 154.75 154.75 144 168 144S192 154.75 192 168V290.906C192 324.594 220.703 352 256 352S320 324.594 320 290.906V168C320 154.75 330.75 144 344 144S368 154.75 368 168V290.906Z" class="fa-secondary"/><path d="M344 144C330.75 144 320 154.75 320 168V290.906C320 324.594 291.297 352 256 352S192 324.594 192 290.906V168C192 154.75 181.25 144 168 144S144 154.75 144 168V290.906C144 351.062 194.25 400 256 400S368 351.062 368 290.906V168C368 154.75 357.25 144 344 144Z" class="fa-primary"/></svg>

<svg xmlns="http://www.w3.org/2000/svg" viewBox="0 0 512 512"><!--! Font Awesome Pro 6.3.0 by @fontawesome - https://fontawesome.com License - https://fontawesome.com/license (Commercial License) Copyright 2023 Fonticons, Inc. --><defs><style>.fa-secondary{opacity:.4}</style></defs><path class="fa-primary" d="M344 144C330.8 144 320 154.8 320 168v122.9C320 324.6 291.3 352 256 352s-64-27.41-64-61.09V168C192 154.8 181.3 144 168 144S144 154.8 144 168v122.9C144 351.1 194.3 400 256 400s112-48.94 112-109.1V168C368 154.8 357.3 144 344 144z"/><path class="fa-secondary" d="M256 0C114.6 0 0 114.6 0 256s114.6 256 256 256s256-114.6 256-256S397.4 0 256 0zM368 290.9C368 351.1 317.8 400 256 400s-112-48.94-112-109.1V168c0-13.25 10.75-24 24-24S192 154.8 192 168v122.9C192 324.6 220.7 352 256 352s64-27.41 64-61.09V168c0-13.25 10.75-24 24-24s24 10.75 24 24V290.9z"/></svg>
